icons/numix/32x32/mimetypes/gnome-mime-application-magicpoint.svg

<?xml version="1.0" encoding="UTF-8" standalone="no"?>
<svg
   xmlns:dc="http://purl.org/dc/elements/1.1/"
   xmlns:cc="http://creativecommons.org/ns#"
   xmlns:rdf="http://www.w3.org/1999/02/22-rdf-syntax-ns#"
   xmlns:svg="http://www.w3.org/2000/svg"
   xmlns="http://www.w3.org/2000/svg"
   xmlns:sodipodi="http://sodipodi.sourceforge.net/DTD/sodipodi-0.dtd"
   xmlns:inkscape="http://www.inkscape.org/namespaces/inkscape"
   width="32"
   height="32"
   viewBox="0 0 32 32"
   id="svg2"
   version="1.1"
   inkscape:version="0.48.5 r10040"
   sodipodi:docname="gnome-mime-application-magicpoint.svg">
  <metadata
     id="metadata34">
    <rdf:RDF>
      <cc:Work
         rdf:about="">
        <dc:format>image/svg+xml</dc:format>
        <dc:type
           rdf:resource="http://purl.org/dc/dcmitype/StillImage" />
      </cc:Work>
    </rdf:RDF>
  </metadata>
  <defs
     id="defs32" />
  <sodipodi:namedview
     pagecolor="#ffffff"
     bordercolor="#666666"
     borderopacity="1"
     objecttolerance="10"
     gridtolerance="10"
     guidetolerance="10"
     inkscape:pageopacity="0"
     inkscape:pageshadow="2"
     inkscape:window-width="1280"
     inkscape:window-height="970"
     id="namedview30"
     showgrid="true"
     inkscape:zoom="14.75"
     inkscape:cx="18.858118"
     inkscape:cy="19.319679"
     inkscape:window-x="0"
     inkscape:window-y="0"
     inkscape:window-maximized="1"
     inkscape:current-layer="svg2">
    <inkscape:grid
       type="xygrid"
       id="grid3040" />
  </sodipodi:namedview>
  <path
     style="fill:#d14626;fill-opacity:1"
     d="M 5.335888,2.974e-4 C 4.648414,3.124e-4 4,0.6767884 4,1.3940324 L 4,30.606268 C 4,31.282757 4.687474,32 5.335888,32 l 21.327332,0 c 0.648414,0 1.335888,-0.717243 1.335888,-1.393732 L 28,9 19,4e-7 z"
     id="path4-1"
     inkscape:connector-curvature="0"
     sodipodi:nodetypes="ssssssccs" />
  <path
     style="fill:#000000;fill-opacity:0.19599998"
     d="m 4,24 0,6.667969 C 4,31.316407 4.6875,32 5.332031,32 l 21.335938,0 C 27.3125,32 28,31.316407 28,30.667969 L 28,24 z"
     id="path20"
     inkscape:connector-curvature="0" />
  <g
     style="fill:#ffffff"
     id="g22"
     transform="matrix(1.0489172,0,0,1.0489172,-0.78852737,-0.3581414)">
    <path
       d="m 10.601562,24.78125 c 0.04297,0.117188 0.09766,0.265625 0.15625,0.445312 0.07031,0.183594 0.140626,0.378907 0.214844,0.585938 0.07031,0.210938 0.144532,0.421875 0.21875,0.636719 0.07422,0.214843 0.144532,0.414062 0.210938,0.59375 0.07422,-0.203125 0.152344,-0.410157 0.230468,-0.625 0.08203,-0.222657 0.15625,-0.429688 0.230469,-0.628907 0.07422,-0.203124 0.140625,-0.394531 0.203125,-0.570312 0.0625,-0.175781 0.117188,-0.320312 0.164063,-0.4375 l 0.941406,0 c 0.04297,0.445312 0.08203,0.882812 0.117187,1.304688 0.04297,0.425781 0.07813,0.84375 0.101563,1.265624 0.03125,0.410157 0.05469,0.828126 0.07422,1.253907 0.01953,0.417969 0.03516,0.847656 0.04687,1.285156 l -1.039063,0 0.05469,-3.96875 -0.699219,2.164063 -0.828125,0 -0.671875,-2.164063 0.04687,3.96875 -1.042969,0 C 9.351562,29.472656 9.371094,29.039062 9.386719,28.589844 9.414062,28.136719 9.4375,27.6875 9.460938,27.242188 9.488281,26.796875 9.515625,26.363281 9.546875,25.945312 9.582031,25.527344 9.621094,25.140625 9.664062,24.78125 l 0.9375,0"
       id="path24"
       inkscape:connector-curvature="0" />
    <path
       d="m 16.59375,25.550781 c -0.269531,0 -0.496094,0.04297 -0.679688,0.132813 -0.183593,0.08594 -0.339843,0.210937 -0.460937,0.371094 -0.117187,0.152343 -0.203125,0.339843 -0.257813,0.558593 -0.05078,0.214844 -0.07422,0.457031 -0.07422,0.71875 0,0.613281 0.109375,1.0625 0.320312,1.355469 0.214844,0.285156 0.53125,0.429688 0.949219,0.429688 0.06641,0 0.140625,-0.0039 0.222656,-0.0078 0.07813,-0.0078 0.152344,-0.01563 0.21875,-0.02734 l 0,-1.863281 1.132813,0 0,2.550781 c -0.136719,0.04297 -0.347656,0.09375 -0.636719,0.148438 -0.28125,0.05469 -0.625,0.08203 -1.027344,0.08203 -0.359375,0 -0.679687,-0.05469 -0.96875,-0.164062 -0.28125,-0.117188 -0.523437,-0.285157 -0.726562,-0.503907 -0.203125,-0.226562 -0.359375,-0.503906 -0.46875,-0.835937 -0.109375,-0.335938 -0.164063,-0.722656 -0.164063,-1.164063 0,-0.433593 0.0625,-0.816406 0.191406,-1.144531 0.128907,-0.335938 0.304688,-0.617188 0.523438,-0.84375 0.222656,-0.226562 0.484375,-0.394531 0.785156,-0.503906 0.300782,-0.117188 0.621094,-0.171875 0.964844,-0.171875 0.21875,0 0.417969,0.01563 0.589844,0.04687 0.175781,0.02734 0.328125,0.0625 0.457031,0.101562 0.128906,0.03906 0.234375,0.07813 0.316406,0.121094 0.08594,0.04687 0.148438,0.07813 0.191407,0.101562 l -0.292969,0.808594 c -0.136719,-0.07813 -0.300781,-0.144531 -0.5,-0.207031 -0.195313,-0.05859 -0.398438,-0.08984 -0.605469,-0.08984"
       id="path26"
       inkscape:connector-curvature="0" />
    <path
       d="m 20.382812,24.722656 c 0.726563,0 1.285157,0.136719 1.6875,0.40625 0.398438,0.265625 0.597657,0.699219 0.597657,1.304688 0,0.609375 -0.203125,1.054687 -0.609375,1.328125 -0.398438,0.269531 -0.964844,0.40625 -1.703125,0.40625 l -0.402344,0 0,1.722656 -1.132813,0 0,-5.042969 c 0.109376,-0.01953 0.234376,-0.03906 0.367188,-0.05859 0.140625,-0.01562 0.28125,-0.02734 0.425781,-0.03125 0.140625,-0.01172 0.277344,-0.01953 0.414063,-0.02344 0.132812,-0.0078 0.253906,-0.01172 0.355468,-0.01172 m 0.128907,0.886719 c -0.06641,0 -0.160157,0 -0.285157,0.0078 -0.113281,0 -0.207031,0.0039 -0.273437,0.01562 l 0,1.652344 0.460937,0 c 0.359376,0 0.632813,-0.06641 0.816407,-0.191406 0.183593,-0.132812 0.277343,-0.355469 0.277343,-0.667969 0,-0.296875 -0.09375,-0.507812 -0.277343,-0.628906 -0.175781,-0.125 -0.417969,-0.1875 -0.71875,-0.1875"
       id="path28"
       inkscape:connector-curvature="0" />
  </g>
  <path
     style="fill:#000000;fill-opacity:0.19599998"
     d="m 21,9 7,7 0,-7 z"
     id="path6-4"
     inkscape:connector-curvature="0"
     sodipodi:nodetypes="cccc" />
  <path
     style="fill:#ffffff;fill-opacity:0.39200003"
     d="M 19.000306,2.974e-4 27.9919,9 20.378638,9 C 19.705687,9 19.000306,8.286511 19.000306,7.61356 z"
     id="path8-6"
     inkscape:connector-curvature="0"
     sodipodi:nodetypes="ccssc" />
  <path
     style="fill:#ffffff"
     inkscape:connector-curvature="0"
     id="path3009"
     d="m 8,12 5,0 0,3 -5,0 z" />
  <path
     style="fill:#ffffff"
     inkscape:connector-curvature="0"
     id="path3011"
     d="m 8,17 5,0 0,3 -5,0 z" />
  <path
     style="fill:#ffffff"
     inkscape:connector-curvature="0"
     id="path3015"
     d="M 20,10.992539 20,15 l 4,0 c 0,-2.214356 -1.791478,-4.007461 -4,-4.007461 z" />
  <path
     style="fill:#ffffff"
     inkscape:connector-curvature="0"
     id="path3017"
     d="M 19.001814,12 C 16.792291,12 15,13.789768 15,16 c 0,2.210233 1.792291,4 4.001814,4 C 21.211338,20 23,18.210233 23,16 l -3.998186,0 z" />
</svg>

<svg width="32" xmlns="http://www.w3.org/2000/svg" height="32" viewBox="0 0 32 32" xmlns:xlink="http://www.w3.org/1999/xlink">
<path style="fill:#d14626" d="M 5.332031 0.667969 C 4.648438 0.667969 4 1.3125 4 2 L 4 30 C 4 30.648438 4.6875 31.332031 5.332031 31.332031 L 26.667969 31.332031 C 27.3125 31.332031 28 30.648438 28 30 L 28 9.332031 L 19.332031 0.667969 Z "/>
<path style="fill:#000;fill-opacity:.196" d="M 19.332031 8 L 19.375 8.042969 L 19.480469 8 Z M 20.667969 9.332031 L 28 16.667969 L 28 9.332031 Z "/>
<path style="fill:#fff;fill-opacity:.392" d="M 19.332031 0.667969 L 28 9.332031 L 20.667969 9.332031 C 20.019531 9.332031 19.332031 8.648438 19.332031 8 Z "/>
<g style="fill:#fff">
<path d="M 8 10.667969 L 12.667969 10.667969 L 12.667969 14 L 8 14 Z "/>
<path d="M 8 16 L 12.667969 16 L 12.667969 19.332031 L 8 19.332031 Z "/>
<path d="M 19.691406 10.667969 L 19.691406 14.867188 L 24 14.867188 C 24 12.546875 22.070312 10.667969 19.691406 10.667969 Z "/>
<path d="M 19.078125 11.265625 C 16.699219 11.265625 14.769531 13.148438 14.769531 15.464844 C 14.769531 17.785156 16.699219 19.667969 19.078125 19.667969 C 21.457031 19.667969 23.382812 17.785156 23.382812 15.464844 L 19.078125 15.464844 Z "/>
</g>
<path style="fill:#000;fill-opacity:.196" d="M 4 23.332031 L 4 30 C 4 30.648438 4.6875 31.332031 5.332031 31.332031 L 26.667969 31.332031 C 27.3125 31.332031 28 30.648438 28 30 L 28 23.332031 Z "/>
<g style="fill:#fff">
<path d="M 10.601562 24.78125 C 10.644531 24.898438 10.699219 25.046875 10.757812 25.226562 C 10.828125 25.410156 10.898438 25.605469 10.972656 25.8125 C 11.042969 26.023438 11.117188 26.234375 11.191406 26.449219 C 11.265625 26.664062 11.335938 26.863281 11.402344 27.042969 C 11.476562 26.839844 11.554688 26.632812 11.632812 26.417969 C 11.714844 26.195312 11.789062 25.988281 11.863281 25.789062 C 11.9375 25.585938 12.003906 25.394531 12.066406 25.21875 C 12.128906 25.042969 12.183594 24.898438 12.230469 24.78125 L 13.171875 24.78125 C 13.214844 25.226562 13.253906 25.664062 13.289062 26.085938 C 13.332031 26.511719 13.367188 26.929688 13.390625 27.351562 C 13.421875 27.761719 13.445312 28.179688 13.464844 28.605469 C 13.484375 29.023438 13.5 29.453125 13.511719 29.890625 L 12.472656 29.890625 L 12.527344 25.921875 L 11.828125 28.085938 L 11 28.085938 L 10.328125 25.921875 L 10.375 29.890625 L 9.332031 29.890625 C 9.351562 29.472656 9.371094 29.039062 9.386719 28.589844 C 9.414062 28.136719 9.4375 27.6875 9.460938 27.242188 C 9.488281 26.796875 9.515625 26.363281 9.546875 25.945312 C 9.582031 25.527344 9.621094 25.140625 9.664062 24.78125 L 10.601562 24.78125 "/>
<path d="M 16.59375 25.550781 C 16.324219 25.550781 16.097656 25.59375 15.914062 25.683594 C 15.730469 25.769531 15.574219 25.894531 15.453125 26.054688 C 15.335938 26.207031 15.25 26.394531 15.195312 26.613281 C 15.144531 26.828125 15.121094 27.070312 15.121094 27.332031 C 15.121094 27.945312 15.230469 28.394531 15.441406 28.6875 C 15.65625 28.972656 15.972656 29.117188 16.390625 29.117188 C 16.457031 29.117188 16.53125 29.113281 16.613281 29.109375 C 16.691406 29.101562 16.765625 29.09375 16.832031 29.082031 L 16.832031 27.21875 L 17.964844 27.21875 L 17.964844 29.769531 C 17.828125 29.8125 17.617188 29.863281 17.328125 29.917969 C 17.046875 29.972656 16.703125 30 16.300781 30 C 15.941406 30 15.621094 29.945312 15.332031 29.835938 C 15.050781 29.71875 14.808594 29.550781 14.605469 29.332031 C 14.402344 29.105469 14.246094 28.828125 14.136719 28.496094 C 14.027344 28.160156 13.972656 27.773438 13.972656 27.332031 C 13.972656 26.898438 14.035156 26.515625 14.164062 26.1875 C 14.292969 25.851562 14.46875 25.570312 14.6875 25.34375 C 14.910156 25.117188 15.171875 24.949219 15.472656 24.839844 C 15.773438 24.722656 16.09375 24.667969 16.4375 24.667969 C 16.65625 24.667969 16.855469 24.683594 17.027344 24.714844 C 17.203125 24.742188 17.355469 24.777344 17.484375 24.816406 C 17.613281 24.855469 17.71875 24.894531 17.800781 24.9375 C 17.886719 24.984375 17.949219 25.015625 17.992188 25.039062 L 17.699219 25.847656 C 17.5625 25.769531 17.398438 25.703125 17.199219 25.640625 C 17.003906 25.582031 16.800781 25.550781 16.59375 25.550781 "/>
<path d="M 20.382812 24.722656 C 21.109375 24.722656 21.667969 24.859375 22.070312 25.128906 C 22.46875 25.394531 22.667969 25.828125 22.667969 26.433594 C 22.667969 27.042969 22.464844 27.488281 22.058594 27.761719 C 21.660156 28.03125 21.09375 28.167969 20.355469 28.167969 L 19.953125 28.167969 L 19.953125 29.890625 L 18.820312 29.890625 L 18.820312 24.847656 C 18.929688 24.828125 19.054688 24.808594 19.1875 24.789062 C 19.328125 24.773438 19.46875 24.761719 19.613281 24.757812 C 19.753906 24.746094 19.890625 24.738281 20.027344 24.734375 C 20.160156 24.726562 20.28125 24.722656 20.382812 24.722656 M 20.511719 25.609375 C 20.445312 25.609375 20.351562 25.609375 20.226562 25.617188 C 20.113281 25.617188 20.019531 25.621094 19.953125 25.632812 L 19.953125 27.285156 L 20.414062 27.285156 C 20.773438 27.285156 21.046875 27.21875 21.230469 27.09375 C 21.414062 26.960938 21.507812 26.738281 21.507812 26.425781 C 21.507812 26.128906 21.414062 25.917969 21.230469 25.796875 C 21.054688 25.671875 20.8125 25.609375 20.511719 25.609375 "/>
</g>
</svg>
